lib/functional/office&editing/file-jsx.svg

<svg xmlns="http://www.w3.org/2000/svg" fill="none" stroke="currentColor" aria-hidden="true" viewBox="0 0 32 32"><g id="Icon-FileJsx"><g clip-path="url(#clip0_12_1559)"><g id="size=md (32px)"><g id="FileJsx"><path id="Vector" stroke-linecap="round" stroke-linejoin="round" stroke-width="2" d="M20.5 21L25 27"/><path id="Vector_2" stroke-linecap="round" stroke-linejoin="round" stroke-width="2" d="M25 21L20.5 27"/><path id="Vector_3" stroke-linecap="round" stroke-linejoin="round" stroke-width="2" d="M9 21V25C9 25.5304 8.78929 26.0391 8.41421 26.4142C8.03914 26.7893 7.53043 27 7 27C6.46957 27 5.96086 26.7893 5.58579 26.4142C5.21071 26.0391 5 25.5304 5 25"/><path id="Vector_4" stroke-linecap="round" stroke-linejoin="round" stroke-width="2" d="M13 26.5C13.5418 26.9041 14.1991 27.1232 14.875 27.125C16 27.125 17 26.75 17 25.5C17 23.5 13 24.375 13 22.5C13 21.5 13.75 20.875 14.875 20.875C15.5509 20.8768 16.2082 21.0959 16.75 21.5"/><path id="Vector_5" stroke-linecap="round" stroke-linejoin="round" stroke-width="2" d="M6 16V5C6 4.73478 6.10536 4.48043 6.29289 4.29289C6.48043 4.10536 6.73478 4 7 4H19L26 11V16"/><path id="Vector_6" stroke-linecap="round" stroke-linejoin="round" stroke-width="2" d="M19 4V11H26"/></g></g></g></g><defs><clipPath id="clip0_12_1559"><rect width="32" height="32" fill="white" rx="5"/></clipPath></defs></svg>

<svg xmlns="http://www.w3.org/2000/svg" fill="none" stroke="currentColor" aria-hidden="true" viewBox="0 0 32 32"><g stroke="#101828" stroke-linecap="round" stroke-linejoin="round" stroke-width="2" clip-path="url(#a)"><path d="m20.5 21 4.5 6m0-6-4.5 6M9 21v4a2 2 0 0 1-4 0m8 1.5a3.15 3.15 0 0 0 1.875.625C16 27.125 17 26.75 17 25.5c0-2-4-1.125-4-3 0-1 .75-1.625 1.875-1.625a3.15 3.15 0 0 1 1.875.625M6 16V5a1 1 0 0 1 1-1h12l7 7v5"/><path d="M19 4v7h7"/></g><defs><clipPath id="a"><rect width="32" height="32" fill="#fff" rx="5"/></clipPath></defs></svg>
